.github/logo.svg

<svg width="438" height="109" fill="none" xmlns="http://www.w3.org/2000/svg">
  <path fill-rule="evenodd" clip-rule="evenodd" d="M210.708 25.5214c-6.616 0-17.705-8.0476-17.705-8.0476S181.598 13.45 174.494 13.45c-7.104 0-12.011 1.3597-16.9 4.0238-4.89 2.664-12.876 9.1357-12.876 9.1357l-5.771 6.9595-5.111 9.8319s-2.3 5.9969-2.355 15.3105c-.055 9.3137 2.355 19.4874 2.355 19.4874s1.174 8.4844 5.111 13.313c3.936 4.8285 14.816 11.7912 14.816 11.7912s6.9 3.666 12.001 4.849c5.102 1.183 8.73 0 8.73 0s16.206-1.601 18.509-4.849c2.304-3.248 10.668-6.9627 17.705-6.9627h13.158c6.201 0 9.936 5.3157 15.009 8.5637 5.073 3.248 16.095 3.248 16.095 3.248s15.973 1.183 19.314 0c3.341-1.183 12.735-6.983 12.735-6.983s7.406-7.6366 11.408-11.0612 6.275-15.1569 6.275-15.1569 1.823-12.1275 2.166-16.2395c.342-4.112 0-10.7636 0-13.8647 0-3.1011-6.558-11.2777-6.558-11.2777l-6.712-6.9595s-10.056-9.1357-12.071-9.1357c-2.015 0-12.093-4.0238-18.509-4.0238s-24.143 5.9258-24.143 5.9258-7.443 4.9911-10.462 6.1456c-3.019 1.1544-11.089 0-17.705 0zm-36.214-4.0238c9.346 0 18.509 4.0238 18.509 4.0238l8.853 4.0238 12.876 4.0238h13.681c2.442 0 10.09-5.805 13.342-6.9595 3.253-1.1544 9.996-5.1119 21.263-5.1119 11.266 0 15.357 1.3098 18.509 4.0238 3.153 2.7139 12.071 12.0714 12.071 12.0714s4.829 9.9846 4.829 14.4857v19.3142l-4.829 15.2905-12.071 9.6571-7.243 4.8287H254.97l-16.095-4.8287s-9.036-4.8285-24.143-4.8285c-15.107 0-21.729 4.8285-21.729 4.8285l-18.509 4.8287-16.9-4.8287-12.876-9.6571-7.243-15.2905V52.0785c0-3.8687 7.243-14.4857 7.243-14.4857l12.876-12.0714s7.554-4.0238 16.9-4.0238z" fill="#EB882E"/>
  <path d="M81.85 1.6c-1.2 1.1-1.6 3.6-1.6 9V18h-4.2c-5.4 0-7.1 1.1-6.6 4.1.3 2.1.9 2.4 5.4 2.7l5.2.3.4 29.2c.4 27.9.5 29.4 2.7 34.5 2.9 6.5 6.6 9.7 13.8 11.8 13.8 4 35.9-4.6 29.2-11.3-.9-.9-2.6-.5-6.9 1.7-7.3 3.7-11.8 4.5-17.9 3-5.6-1.3-9.7-5-11.1-10.1-.6-1.8-1-15.9-1-31.1V25h14.8c15.2 0 17.2-.5 17.2-4.1 0-2.6-2-2.9-17.6-2.9h-14.4v-7.4c0-7.6-1.3-10.6-4.5-10.6-.7 0-2.1.7-2.9 1.6zM16.85 22.0093c-10.4 3.8-14.6 9.2-14.6 18.9 0 11.4 5 16.1 25 23.2 17.2 6.2 22 10.2 22 18.5 0 9.7-5.4 14.7-16.9 15.6-8.9.6-16.7-1.2-23.2-5.3-5.6-3.5-8.9-3.4-8.9.4 0 6.9997 21 13.6997 36.1 11.3997 9.9-1.6 15.6-5.1997 19.2-12.1997 7.6-15.1.3-25.9-23.3-34.1-17.1-6-21-9-21.8-16.8-.4-4.4-.1-5.2 2.7-8.5 1.8-2 4.7-4.1 6.6-4.7 5.9-1.9 17.5-1.4 25.2 1.1 7.6 2.4 10.3 2.1 10.3-1 0-4.7-10.5-8.1-24.5-8-6 0-11.5.6-13.9 1.5zM318.95 17.7c-.4.3-.7 19-.7 41.3 0 34.4.2 40.9 1.5 42 2 1.6 5.4.3 6-2.3.3-1.2.6-14.1.7-28.7.3-25.4.4-26.7 2.7-31.7 5.3-11.8 16.6-16.8 29.6-13.2 5.1 1.4 11.9 8.1 13.6 13.4.8 2.7 1.4 13.6 1.8 32.9.5 26 .8 29 2.4 30 1.2.8 2.2.8 3.5 0 1.5-1 1.8-3.9 2.3-29 .4-18.6 1-29.1 1.8-31.4 2.4-6.7 6.4-11.4 12.1-14.3 4.8-2.5 6.3-2.8 12.2-2.4 9.5.6 14.8 3.9 18.5 11.4l2.8 5.8.5 29.4c.5 26.6.7 29.5 2.3 30.5 1.2.8 2.2.8 3.5 0 1.6-1 1.7-3.7 1.7-31.5 0-33.5-.3-35.7-5.9-43-5-6.6-11.1-9.3-21.9-9.7-13.4-.6-21.2 3.2-27.7 13.6l-2.7 4.3-1.8-4.1c-4-8.9-13.6-14-26-14-9.5 0-15.8 2.3-21.2 7.6l-4.3 4.3v-4.7c0-2.7-.5-5.3-1.2-6-1.3-1.3-5-1.6-6.1-.5z" fill="#fff"/>
</svg>

<svg width="438" height="109" viewBox="0 0 438 109" fill="none" xmlns="http://www.w3.org/2000/svg">
<path fill-rule="evenodd" clip-rule="evenodd" d="M210.708 25.5214C204.092 25.5214 193.003 17.4738 193.003 17.4738C193.003 17.4738 181.598 13.45 174.494 13.45C167.39 13.45 162.483 14.8097 157.594 17.4738C152.704 20.1378 144.718 26.6095 144.718 26.6095L138.947 33.569L133.836 43.4009C133.836 43.4009 131.536 49.3978 131.481 58.7114C131.426 68.0251 133.836 78.1988 133.836 78.1988C133.836 78.1988 135.01 86.6832 138.947 91.5118C142.883 96.3403 153.763 103.303 153.763 103.303C153.763 103.303 160.663 106.969 165.764 108.152C170.866 109.335 174.494 108.152 174.494 108.152C174.494 108.152 190.7 106.551 193.003 103.303C195.307 100.055 203.671 96.3403 210.708 96.3403H223.866C230.067 96.3403 233.802 101.656 238.875 104.904C243.948 108.152 254.97 108.152 254.97 108.152C254.97 108.152 270.943 109.335 274.284 108.152C277.625 106.969 287.019 101.169 287.019 101.169C287.019 101.169 294.425 93.5324 298.427 90.1078C302.429 86.6832 304.702 74.9509 304.702 74.9509C304.702 74.9509 306.525 62.8234 306.868 58.7114C307.21 54.5994 306.868 47.9478 306.868 44.8467C306.868 41.7456 300.31 33.569 300.31 33.569L293.598 26.6095C293.598 26.6095 283.542 17.4738 281.527 17.4738C279.512 17.4738 269.434 13.45 263.018 13.45C256.602 13.45 238.875 19.3758 238.875 19.3758C238.875 19.3758 231.432 24.3669 228.413 25.5214C225.394 26.6758 217.324 25.5214 210.708 25.5214ZM174.494 21.4976C183.84 21.4976 193.003 25.5214 193.003 25.5214L201.856 29.5452L214.732 33.569H228.413C230.855 33.569 238.503 27.764 241.755 26.6095C245.008 25.4551 251.751 21.4976 263.018 21.4976C274.284 21.4976 278.375 22.8074 281.527 25.5214C284.68 28.2353 293.598 37.5928 293.598 37.5928C293.598 37.5928 298.427 47.5774 298.427 52.0785V71.3927L293.598 86.6832L281.527 96.3403L274.284 101.169H254.97L238.875 96.3403C238.875 96.3403 229.839 91.5118 214.732 91.5118C199.625 91.5118 193.003 96.3403 193.003 96.3403L174.494 101.169L157.594 96.3403L144.718 86.6832L137.475 71.3927V52.0785C137.475 48.2098 144.718 37.5928 144.718 37.5928L157.594 25.5214C157.594 25.5214 165.148 21.4976 174.494 21.4976Z" fill="#EB882E"/>
<path d="M81.85 1.6C80.65 2.7 80.25 5.2 80.25 10.6V18H76.05C70.65 18 68.95 19.1 69.45 22.1C69.75 24.2 70.35 24.5 74.85 24.8L80.05 25.1L80.45 54.3C80.85 82.2 80.95 83.7 83.15 88.8C86.05 95.3 89.75 98.5 96.95 100.6C110.75 104.6 132.85 96 126.15 89.3C125.25 88.4 123.55 88.8 119.25 91C111.95 94.7 107.45 95.5 101.35 94C95.75 92.7 91.65 89 90.25 83.9C89.65 82.1 89.25 68 89.25 52.8V25H104.05C119.25 25 121.25 24.5 121.25 20.9C121.25 18.3 119.25 18 103.65 18H89.25V10.6C89.25 3 87.95 0 84.75 0C84.05 0 82.65 0.699997 81.85 1.6Z" fill="black"/>
<path d="M16.85 22.0093C6.45 25.8093 2.25 31.2093 2.25 40.9093C2.25 52.3093 7.25 57.0093 27.25 64.1093C44.45 70.3093 49.25 74.3093 49.25 82.6093C49.25 92.3093 43.85 97.3093 32.35 98.2093C23.45 98.8093 15.65 97.0093 9.15 92.9093C3.55 89.4093 0.25 89.5093 0.25 93.3093C0.25 100.309 21.25 107.009 36.35 104.709C46.25 103.109 51.95 99.5093 55.55 92.5093C63.15 77.4093 55.85 66.6093 32.25 58.4093C15.15 52.4093 11.25 49.4093 10.45 41.6093C10.05 37.2093 10.35 36.4093 13.15 33.1093C14.95 31.1093 17.85 29.0093 19.75 28.4093C25.65 26.5093 37.25 27.0093 44.95 29.5093C52.55 31.9093 55.25 31.6093 55.25 28.5093C55.25 23.8093 44.75 20.4093 30.75 20.5093C24.75 20.5093 19.25 21.1093 16.85 22.0093Z" fill="black"/>
<path d="M318.95 17.7C318.55 18 318.25 36.7 318.25 59C318.25 93.4 318.45 99.9 319.75 101C321.75 102.6 325.15 101.3 325.75 98.7C326.05 97.5 326.35 84.6 326.45 70C326.75 44.6 326.85 43.3 329.15 38.3C334.45 26.5 345.75 21.5 358.75 25.1C363.85 26.5 370.65 33.2 372.35 38.5C373.15 41.2 373.75 52.1 374.15 71.4C374.65 97.4 374.95 100.4 376.55 101.4C377.75 102.2 378.75 102.2 380.05 101.4C381.55 100.4 381.85 97.5 382.35 72.4C382.75 53.8 383.35 43.3 384.15 41C386.55 34.3 390.55 29.6 396.25 26.7C401.05 24.2 402.55 23.9 408.45 24.3C417.95 24.9 423.25 28.2 426.95 35.7L429.75 41.5L430.25 70.9C430.75 97.5 430.95 100.4 432.55 101.4C433.75 102.2 434.75 102.2 436.05 101.4C437.65 100.4 437.75 97.7 437.75 69.9C437.75 36.4 437.45 34.2 431.85 26.9C426.85 20.3 420.75 17.6 409.95 17.2C396.55 16.6 388.75 20.4 382.25 30.8L379.55 35.1L377.75 31C373.75 22.1 364.15 17 351.75 17C342.25 17 335.95 19.3 330.55 24.6L326.25 28.9V24.2C326.25 21.5 325.75 18.9 325.05 18.2C323.75 16.9 320.05 16.6 318.95 17.7Z" fill="black"/>
</svg>
